X:6783
T:The Flowers of Edinburgh
O:england
M:4/4
L:1/8
K:G
GE|D2DE G2GA|BGBd cBAG|FGFE DEFG|AFdF E2GE|
D2DE G2GA|BGBd efge|dcBA GFGA|B2 G2 G2:|]
d2|g2g2 gbag|f2f2 fagf|edef gfed|B2e2 e2ge|
dBGB d2 d2|edef g2fe|dcBA GFGA|B2 G2 G2:|]


